src/svg/cluster_illustration.svg

<svg width="279" height="269" viewBox="0 0 279 269" fill="none" xmlns="http://www.w3.org/2000/svg">
<g opacity="0.6">
<g opacity="0.8">
<path opacity="0.8" d="M207.9 161.6C216.681 161.6 223.8 154.481 223.8 145.7C223.8 136.919 216.681 129.8 207.9 129.8C199.119 129.8 192 136.919 192 145.7C192 154.481 199.119 161.6 207.9 161.6Z" fill="#CC8B54"/>
</g>
<g opacity="0.6">
<path opacity="0.6" d="M192.7 192C198.278 192 202.8 187.478 202.8 181.9C202.8 176.322 198.278 171.8 192.7 171.8C187.122 171.8 182.6 176.322 182.6 181.9C182.6 187.478 187.122 192 192.7 192Z" fill="#F08747"/>
</g>
<g opacity="0.8">
<path opacity="0.8" d="M152.8 110.8C158.378 110.8 162.9 106.278 162.9 100.7C162.9 95.1219 158.378 90.6 152.8 90.6C147.222 90.6 142.7 95.1219 142.7 100.7C142.7 106.278 147.222 110.8 152.8 110.8Z" fill="#F08747"/>
</g>
<g opacity="0.8">
<path opacity="0.8" d="M135.8 171C141.599 171 146.3 166.299 146.3 160.5C146.3 154.701 141.599 150 135.8 150C130.001 150 125.3 154.701 125.3 160.5C125.3 166.299 130.001 171 135.8 171Z" fill="#E78449"/>
</g>
<g opacity="0.6">
<path opacity="0.6" d="M171.6 162.4C177.62 162.4 182.5 157.52 182.5 151.5C182.5 145.48 177.62 140.6 171.6 140.6C165.58 140.6 160.7 145.48 160.7 151.5C160.7 157.52 165.58 162.4 171.6 162.4Z" fill="#DC7E42"/>
</g>
<g opacity="0.8">
<path opacity="0.8" d="M115.5 138.4C118.482 138.4 120.9 135.982 120.9 133C120.9 130.018 118.482 127.6 115.5 127.6C112.518 127.6 110.1 130.018 110.1 133C110.1 135.982 112.518 138.4 115.5 138.4Z" fill="#E78449"/>
</g>
<g opacity="0.6">
<path opacity="0.6" d="M153.5 136.2C157.476 136.2 160.7 132.976 160.7 129C160.7 125.024 157.476 121.8 153.5 121.8C149.524 121.8 146.3 125.024 146.3 129C146.3 132.976 149.524 136.2 153.5 136.2Z" fill="#F08747"/>
</g>
<g opacity="0.6">
<path opacity="0.6" d="M184.7 121.8C190.72 121.8 195.6 116.92 195.6 110.9C195.6 104.88 190.72 100 184.7 100C178.68 100 173.8 104.88 173.8 110.9C173.8 116.92 178.68 121.8 184.7 121.8Z" fill="#E7844B"/>
</g>
</g>
<g opacity="0.6">
<g opacity="0.7">
<path opacity="0.7" d="M203.5 43.4C205.488 43.4 207.1 41.7882 207.1 39.8C207.1 37.8118 205.488 36.2 203.5 36.2C201.512 36.2 199.9 37.8118 199.9 39.8C199.9 41.7882 201.512 43.4 203.5 43.4Z" fill="#ED7332"/>
</g>
<g opacity="0.8">
<path opacity="0.8" d="M216.6 52.1C220.19 52.1 223.1 49.1898 223.1 45.6C223.1 42.0101 220.19 39.1 216.6 39.1C213.01 39.1 210.1 42.0101 210.1 45.6C210.1 49.1898 213.01 52.1 216.6 52.1Z" fill="#EC7332" fill-opacity="0.7"/>
</g>
<g opacity="0.5">
<path opacity="0.5" d="M207.2 32.6C208.802 32.6 210.1 31.3016 210.1 29.7C210.1 28.0984 208.802 26.8 207.2 26.8C205.598 26.8 204.3 28.0984 204.3 29.7C204.3 31.3016 205.598 32.6 207.2 32.6Z" fill="#EB7332"/>
</g>
<g opacity="0.8">
<path opacity="0.8" d="M216.2 34.8C217.194 34.8 218 33.9941 218 33C218 32.0059 217.194 31.2 216.2 31.2C215.206 31.2 214.4 32.0059 214.4 33C214.4 33.9941 215.206 34.8 216.2 34.8Z" fill="#EB7339"/>
</g>
</g>
<g opacity="0.6">
<path opacity="0.6" d="M157.1 236.5C200.841 236.5 236.3 201.041 236.3 157.3C236.3 113.559 200.841 78.1 157.1 78.1C113.359 78.1 77.9 113.559 77.9 157.3C77.9 201.041 113.359 236.5 157.1 236.5Z" fill="#F7D2D2" fill-opacity="0.3" stroke="#E58033" stroke-width="4"/>
<g opacity="0.5">
<path opacity="0.5" d="M210.8 59.4C221.183 59.4 229.6 50.9829 229.6 40.6C229.6 30.217 221.183 21.8 210.8 21.8C200.417 21.8 192 30.217 192 40.6C192 50.9829 200.417 59.4 210.8 59.4Z" stroke="#EC7332" stroke-width="3"/>
</g>
<g opacity="0.8">
<path opacity="0.8" d="M69.4 97.8C91.8228 97.8 110 79.6228 110 57.2C110 34.7772 91.8228 16.6 69.4 16.6C46.9772 16.6 28.8 34.7772 28.8 57.2C28.8 79.6228 46.9772 97.8 69.4 97.8Z" fill="#F7D2D2" fill-opacity="0.39"/>
<path opacity="0.8" d="M69.4 95.8C90.7182 95.8 108 78.5182 108 57.2C108 35.8818 90.7182 18.6 69.4 18.6C48.0818 18.6 30.8 35.8818 30.8 57.2C30.8 78.5182 48.0818 95.8 69.4 95.8Z" stroke="#D38E4E" stroke-opacity="0.7" stroke-width="4"/>
</g>
</g>
<g opacity="0.6">
<g opacity="0.5">
<path opacity="0.5" d="M51.7 53.6C54.6823 53.6 57.1 51.1823 57.1 48.2C57.1 45.2177 54.6823 42.8 51.7 42.8C48.7177 42.8 46.3 45.2177 46.3 48.2C46.3 51.1823 48.7177 53.6 51.7 53.6Z" fill="#E78445" fill-opacity="0.7"/>
</g>
<g opacity="0.6">
<path opacity="0.6" d="M73.1 39.1C75.0882 39.1 76.7 37.4882 76.7 35.5C76.7 33.5118 75.0882 31.9 73.1 31.9C71.1118 31.9 69.5 33.5118 69.5 35.5C69.5 37.4882 71.1118 39.1 73.1 39.1Z" fill="#EB7332" fill-opacity="0.7"/>
</g>
<g opacity="0.8">
<path opacity="0.8" d="M71.6 83.4C77.6199 83.4 82.5 78.5199 82.5 72.5C82.5 66.4801 77.6199 61.6 71.6 61.6C65.5801 61.6 60.7 66.4801 60.7 72.5C60.7 78.5199 65.5801 83.4 71.6 83.4Z" fill="#F08947" fill-opacity="0.9"/>
</g>
<g opacity="0.8">
<path opacity="0.8" d="M86.1 54.4C88.9166 54.4 91.2 52.1166 91.2 49.3C91.2 46.4833 88.9166 44.2 86.1 44.2C83.2833 44.2 81 46.4833 81 49.3C81 52.1166 83.2833 54.4 86.1 54.4Z" fill="#E78445" fill-opacity="0.7"/>
</g>
</g>
</svg>

<svg width="279" height="269" fill="none" xmlns="http://www.w3.org/2000/svg"><g opacity=".6"><path opacity=".8" d="M207.9 161.6c8.781 0 15.9-7.119 15.9-15.9s-7.119-15.9-15.9-15.9-15.9 7.119-15.9 15.9 7.119 15.9 15.9 15.9z" fill="#CC8B54"/><path opacity=".6" d="M192.7 192c5.578 0 10.1-4.522 10.1-10.1 0-5.578-4.522-10.1-10.1-10.1-5.578 0-10.1 4.522-10.1 10.1 0 5.578 4.522 10.1 10.1 10.1z" fill="#F08747"/><path opacity=".8" d="M152.8 110.8c5.578 0 10.1-4.522 10.1-10.1 0-5.578-4.522-10.1-10.1-10.1-5.578 0-10.1 4.522-10.1 10.1 0 5.578 4.522 10.1 10.1 10.1z" fill="#F08747"/><path opacity=".8" d="M135.8 171c5.799 0 10.5-4.701 10.5-10.5s-4.701-10.5-10.5-10.5-10.5 4.701-10.5 10.5 4.701 10.5 10.5 10.5z" fill="#E78449"/><path opacity=".6" d="M171.6 162.4c6.02 0 10.9-4.88 10.9-10.9 0-6.02-4.88-10.9-10.9-10.9-6.02 0-10.9 4.88-10.9 10.9 0 6.02 4.88 10.9 10.9 10.9z" fill="#DC7E42"/><path opacity=".8" d="M115.5 138.4a5.4 5.4 0 100-10.8 5.4 5.4 0 000 10.8z" fill="#E78449"/><path opacity=".6" d="M153.5 136.2a7.2 7.2 0 10-.001-14.401 7.2 7.2 0 00.001 14.401z" fill="#F08747"/><path opacity=".6" d="M184.7 121.8c6.02 0 10.9-4.88 10.9-10.9 0-6.02-4.88-10.9-10.9-10.9-6.02 0-10.9 4.88-10.9 10.9 0 6.02 4.88 10.9 10.9 10.9z" fill="#E7844B"/></g><g opacity=".6"><path opacity=".7" d="M203.5 43.4a3.6 3.6 0 100-7.2 3.6 3.6 0 000 7.2z" fill="#ED7332"/><path opacity=".8" d="M216.6 52.1a6.5 6.5 0 100-13 6.5 6.5 0 000 13z" fill="#EC7332" fill-opacity=".7"/><path opacity=".5" d="M207.2 32.6a2.9 2.9 0 100-5.8 2.9 2.9 0 000 5.8z" fill="#EB7332"/><path opacity=".8" d="M216.2 34.8a1.8 1.8 0 100-3.6 1.8 1.8 0 000 3.6z" fill="#EB7339"/></g><g opacity=".6"><path opacity=".6" d="M157.1 236.5c43.741 0 79.2-35.459 79.2-79.2s-35.459-79.2-79.2-79.2-79.2 35.459-79.2 79.2 35.459 79.2 79.2 79.2z" fill="#F7D2D2" fill-opacity=".3" stroke="#E58033" stroke-width="4"/><path opacity=".5" d="M210.8 59.4c10.383 0 18.8-8.417 18.8-18.8 0-10.383-8.417-18.8-18.8-18.8-10.383 0-18.8 8.417-18.8 18.8 0 10.383 8.417 18.8 18.8 18.8z" stroke="#EC7332" stroke-width="3"/><g opacity=".8"><path opacity=".8" d="M69.4 97.8c22.423 0 40.6-18.177 40.6-40.6 0-22.423-18.177-40.6-40.6-40.6-22.423 0-40.6 18.177-40.6 40.6 0 22.423 18.177 40.6 40.6 40.6z" fill="#F7D2D2" fill-opacity=".39"/><path opacity=".8" d="M69.4 95.8c21.318 0 38.6-17.282 38.6-38.6S90.718 18.6 69.4 18.6 30.8 35.882 30.8 57.2s17.282 38.6 38.6 38.6z" stroke="#D38E4E" stroke-opacity=".7" stroke-width="4"/></g></g><g opacity=".6"><path opacity=".5" d="M51.7 53.6a5.4 5.4 0 100-10.8 5.4 5.4 0 000 10.8z" fill="#E78445" fill-opacity=".7"/><path opacity=".6" d="M73.1 39.1a3.6 3.6 0 100-7.2 3.6 3.6 0 000 7.2z" fill="#EB7332" fill-opacity=".7"/><path opacity=".8" d="M71.6 83.4c6.02 0 10.9-4.88 10.9-10.9 0-6.02-4.88-10.9-10.9-10.9-6.02 0-10.9 4.88-10.9 10.9 0 6.02 4.88 10.9 10.9 10.9z" fill="#F08947" fill-opacity=".9"/><path opacity=".8" d="M86.1 54.4a5.1 5.1 0 100-10.2 5.1 5.1 0 000 10.2z" fill="#E78445" fill-opacity=".7"/></g></svg>
